X: 206
T:Mrs Sherrif Cameron, Elgin
C:William Marshall
L:1/8
M:4/4
O:Scotland
R:Slow Strathspey
Z:Clark Bernst
%%Page:32 - 1
F:http://richardrobinson.tunebook.org.uk/tune/4049
%%TBL:{"version":1,"type":"tune","id":"4049"}
K:Eb
e [| \
B3/2A/ G/E3/2 B,/D3/2G,/E3/2 | D/F3/2F3/2G/ A2 Ac | \
B3/2A/ G/E3/2 B,/D3/2G,/E3/2 | G/e3/2e3/2G/ {G}B2 Be |
B3/2A/ G/E3/2 B,/D3/2G,/E3/2 | D/F3/2F3/2G/ A2 Ac | \
B3/2A/ G/E3/2 B,/D3/2G,/E3/2 | G/e3/2e3/2G/ {G}B2 Bd [|
e/d/c/B/ G3/2e/ B3/2e/G3/2E/ | D/F3/2F3/2G/ {B}A2 Ac | \
e3/2B/ge fdeE | G/B3/2e3/2G/ B2 Bc/d/ |
e/d/c/B/ G3/2E/ e3/2E/GE | D/F3/2F3/2G/ {B}A2 Ac | \
B/e/g/f/ e/d/c/B/ e3/2B/ c/e3/2 | B3/2G/ E/F/G/A/ B2 Be |]

